src/lib/packages/icons/src/assets/line/money-bill-convert.svg

<svg xmlns="http://www.w3.org/2000/svg" width="24" height="24" fill="none"><path fill="currentColor" d="M13.75 18a.75.75 0 0 1-.75.75H5c-2.418 0-3.75-1.332-3.75-3.75V7c0-2.418 1.332-3.75 3.75-3.75h12c2.418 0 3.75 1.332 3.75 3.75v4a.75.75 0 0 1-1.5 0V7c0-1.577-.673-2.25-2.25-2.25H5c-1.577 0-2.25.673-2.25 2.25v8c0 1.577.673 2.25 2.25 2.25h8a.75.75 0 0 1 .75.75ZM4 11a1 1 0 1 0 2 0 1 1 0 0 0-2 0Zm10.75 0A3.754 3.754 0 0 1 11 14.75 3.754 3.754 0 0 1 7.25 11 3.754 3.754 0 0 1 11 7.25 3.754 3.754 0 0 1 14.75 11Zm-1.5 0A2.252 2.252 0 0 0 11 8.75 2.252 2.252 0 0 0 8.75 11 2.252 2.252 0 0 0 11 13.25 2.252 2.252 0 0 0 13.25 11ZM22 19.25h-4.5a.75.75 0 0 1-.75-.75V18a.75.75 0 0 0-1.5 0v.5a2.252 2.252 0 0 0 2.25 2.25h2.792a.75.75 0 0 0 1.237.78l1-1A.75.75 0 0 0 22 19.25Zm-1.5-4.5h-2.792a.75.75 0 0 0-1.238-.78l-1 1a.75.75 0 0 0 .53 1.28h4.5a.75.75 0 0 1 .75.75v.5a.75.75 0 0 0 1.5 0V17a2.252 2.252 0 0 0-2.25-2.25Z"/></svg>

<svg width="24" height="24" viewBox="0 0 24 24" fill="none" xmlns="http://www.w3.org/2000/svg">
<path d="M13.75 18C13.75 18.414 13.414 18.75 13 18.75H5C2.582 18.75 1.25 17.418 1.25 15V7C1.25 4.582 2.582 3.25 5 3.25H17C19.418 3.25 20.75 4.582 20.75 7V11C20.75 11.414 20.414 11.75 20 11.75C19.586 11.75 19.25 11.414 19.25 11V7C19.25 5.423 18.577 4.75 17 4.75H5C3.423 4.75 2.75 5.423 2.75 7V15C2.75 16.577 3.423 17.25 5 17.25H13C13.414 17.25 13.75 17.586 13.75 18ZM4 11C4 11.552 4.448 12 5 12C5.552 12 6 11.552 6 11C6 10.448 5.552 10 5 10C4.448 10 4 10.448 4 11ZM14.75 11C14.75 13.068 13.068 14.75 11 14.75C8.932 14.75 7.25 13.068 7.25 11C7.25 8.932 8.932 7.25 11 7.25C13.068 7.25 14.75 8.932 14.75 11ZM13.25 11C13.25 9.759 12.241 8.75 11 8.75C9.759 8.75 8.75 9.759 8.75 11C8.75 12.241 9.759 13.25 11 13.25C12.241 13.25 13.25 12.241 13.25 11ZM22 19.25H17.5C17.086 19.25 16.75 18.914 16.75 18.5V18C16.75 17.586 16.414 17.25 16 17.25C15.586 17.25 15.25 17.586 15.25 18V18.5C15.25 19.741 16.259 20.75 17.5 20.75H20.292C20.199 21.014 20.258 21.319 20.469 21.53C20.615 21.676 20.807 21.75 20.999 21.75C21.191 21.75 21.383 21.677 21.529 21.53L22.529 20.53C22.743 20.316 22.808 19.993 22.692 19.713C22.576 19.433 22.303 19.25 22 19.25ZM20.5 14.75H17.708C17.801 14.486 17.742 14.181 17.531 13.97C17.238 13.677 16.763 13.677 16.47 13.97L15.47 14.97C15.256 15.184 15.191 15.507 15.307 15.787C15.423 16.067 15.697 16.25 16 16.25H20.5C20.914 16.25 21.25 16.586 21.25 17V17.5C21.25 17.914 21.586 18.25 22 18.25C22.414 18.25 22.75 17.914 22.75 17.5V17C22.75 15.759 21.741 14.75 20.5 14.75Z" fill="currentColor"/>
</svg>
